austria/municipalities/70205.svg

<?xml version="1.0" encoding="UTF-8"?>
<!DOCTYPE svg PUBLIC "-//W3C//DTD SVG 1.1//EN" "http://www.w3.org/Graphics/SVG/1.1/DTD/svg11.dtd">
<svg xmlns="http://www.w3.org/2000/svg" version="1.1" width="166px" height="192px" style="shape-rendering:geometricPrecision; text-rendering:geometricPrecision; image-rendering:optimizeQuality; fill-rule:evenodd; clip-rule:evenodd" xmlns:xlink="http://www.w3.org/1999/xlink">
<g><path style="opacity:1" fill="#0c0c0b" d="M -0.5,-0.5 C 54.8333,-0.5 110.167,-0.5 165.5,-0.5C 165.5,39.1667 165.5,78.8333 165.5,118.5C 157.367,159.633 132.7,183.966 91.5,191.5C 84.8333,191.5 78.1667,191.5 71.5,191.5C 30.4674,182.802 6.46741,157.802 -0.5,116.5C -0.5,77.5 -0.5,38.5 -0.5,-0.5 Z"/></g>
<g><path style="opacity:1" fill="#185c2a" d="M 96.5,3.5 C 96.5,25.8333 96.5,48.1667 96.5,70.5C 65.5,70.5 34.5,70.5 3.5,70.5C 3.5,48.1667 3.5,25.8333 3.5,3.5C 34.5,3.5 65.5,3.5 96.5,3.5 Z"/></g>
<g><path style="opacity:1" fill="#8f8b88" d="M 97.5,3.5 C 97.8333,3.5 98.1667,3.5 98.5,3.5C 98.1676,64.3356 98.5009,125.002 99.5,185.5C 99.44,186.043 99.1067,186.376 98.5,186.5C 97.5002,160.175 97.1669,133.842 97.5,107.5C 97.5,95.8333 97.5,84.1667 97.5,72.5C 97.5,49.5 97.5,26.5 97.5,3.5 Z"/></g>
<g><path style="opacity:1" fill="#fdfdfd" d="M 98.5,3.5 C 119.5,3.5 140.5,3.5 161.5,3.5C 161.965,43.8676 161.465,84.2009 160,124.5C 155.983,143.978 146.149,159.644 130.5,171.5C 129.502,141.005 129.169,110.338 129.5,79.5C 133.467,76.9227 133.467,74.2561 129.5,71.5C 128.359,69.5787 128.192,67.5787 129,65.5C 134.003,65.2346 138.503,63.5679 142.5,60.5C 143.251,61.376 143.751,62.376 144,63.5C 146.285,58.252 148.618,52.9187 151,47.5C 151.497,44.854 151.664,42.1873 151.5,39.5C 152.675,39.719 153.675,39.3857 154.5,38.5C 153.68,36.8888 152.346,36.2222 150.5,36.5C 147.403,26.0742 140.403,20.4076 129.5,19.5C 130.114,14.3292 128.781,14.1626 125.5,19C 119.022,20.2391 113.355,23.0724 108.5,27.5C 107.191,25.1088 106.191,25.1088 105.5,27.5C 105.934,33.1312 106.1,38.7979 106,44.5C 107.4,47.9024 109.567,50.7357 112.5,53C 111.672,53.9147 110.672,54.5814 109.5,55C 110.167,55.3333 110.833,55.6667 111.5,56C 122.031,58.0571 129.698,54.3904 134.5,45C 136.903,44.3698 138.737,45.2031 140,47.5C 142.527,43.2623 141.527,40.2623 137,38.5C 136.228,38.6448 135.561,38.9781 135,39.5C 132.928,25.3803 129.928,25.0469 126,38.5C 119.958,36.4158 117.458,38.4158 118.5,44.5C 122.078,41.4083 123.911,42.075 124,46.5C 119.906,49.4756 116.573,48.809 114,44.5C 111.962,33.033 116.795,27.033 128.5,26.5C 140.75,28.3238 145.583,35.3238 143,47.5C 141.939,50.5616 140.106,53.0616 137.5,55C 132.331,57.0757 127.165,58.909 122,60.5C 121.212,65.6722 119.712,70.5056 117.5,75C 117.388,76.6624 118.054,77.8291 119.5,78.5C 120.833,111.833 120.833,145.167 119.5,178.5C 113.239,182.031 106.572,184.365 99.5,185.5C 98.5009,125.002 98.1676,64.3356 98.5,3.5 Z"/></g>
<g><path style="opacity:1" fill="#0e1a0f" d="M 96.5,3.5 C 96.8333,3.5 97.1667,3.5 97.5,3.5C 97.5,26.5 97.5,49.5 97.5,72.5C 97.1667,72.5 96.8333,72.5 96.5,72.5C 91.0247,71.5111 85.358,71.1778 79.5,71.5C 79.1667,71.5 78.8333,71.5 78.5,71.5C 72.4093,71.2114 66.4093,71.5447 60.5,72.5C 60.1667,72.5 59.8333,72.5 59.5,72.5C 54.0247,71.5111 48.358,71.1778 42.5,71.5C 42.1667,71.5 41.8333,71.5 41.5,71.5C 35.31,71.1771 29.31,71.5104 23.5,72.5C 23.1667,72.5 22.8333,72.5 22.5,72.5C 16.3554,71.5098 10.0221,71.1765 3.5,71.5C 3.5,71.1667 3.5,70.8333 3.5,70.5C 34.5,70.5 65.5,70.5 96.5,70.5C 96.5,48.1667 96.5,25.8333 96.5,3.5 Z"/></g>
<g><path style="opacity:1" fill="#d23023" d="M 3.5,71.5 C 10.0221,71.1765 16.3554,71.5098 22.5,72.5C 22.5,77.8333 22.5,83.1667 22.5,88.5C 16.1667,88.5 9.83333,88.5 3.5,88.5C 3.5,82.8333 3.5,77.1667 3.5,71.5 Z"/></g>
<g><path style="opacity:1" fill="#f2f2f1" d="M 41.5,71.5 C 41.5,77.5 41.5,83.5 41.5,89.5C 35.5,89.5 29.5,89.5 23.5,89.5C 23.5,83.8333 23.5,78.1667 23.5,72.5C 29.31,71.5104 35.31,71.1771 41.5,71.5 Z"/></g>
<g><path style="opacity:1" fill="#d23023" d="M 42.5,71.5 C 48.358,71.1778 54.0247,71.5111 59.5,72.5C 59.5,77.8333 59.5,83.1667 59.5,88.5C 53.8333,88.5 48.1667,88.5 42.5,88.5C 42.5,82.8333 42.5,77.1667 42.5,71.5 Z"/></g>
<g><path style="opacity:1" fill="#ededec" d="M 78.5,71.5 C 78.5,77.5 78.5,83.5 78.5,89.5C 72.8236,89.6661 67.1569,89.4994 61.5,89C 60.5268,83.5934 60.1934,78.0934 60.5,72.5C 66.4093,71.5447 72.4093,71.2114 78.5,71.5 Z"/></g>
<g><path style="opacity:1" fill="#ce3023" d="M 79.5,71.5 C 85.358,71.1778 91.0247,71.5111 96.5,72.5C 96.5,78.1667 96.5,83.8333 96.5,89.5C 90.8333,89.5 85.1667,89.5 79.5,89.5C 79.5,83.5 79.5,77.5 79.5,71.5 Z"/></g>
<g><path style="opacity:1" fill="#8f8b88" d="M 129.5,79.5 C 129.169,110.338 129.502,141.005 130.5,171.5C 130.44,172.043 130.107,172.376 129.5,172.5C 128.17,141.336 128.17,110.336 129.5,79.5 Z"/></g>
<g><path style="opacity:1" fill="#482720" d="M 22.5,72.5 C 22.8333,72.5 23.1667,72.5 23.5,72.5C 23.5,78.1667 23.5,83.8333 23.5,89.5C 29.5,89.5 35.5,89.5 41.5,89.5C 41.5,89.8333 41.5,90.1667 41.5,90.5C 35.5,90.5 29.5,90.5 23.5,90.5C 23.5,96.1667 23.5,101.833 23.5,107.5C 23.1667,107.5 22.8333,107.5 22.5,107.5C 22.5,101.833 22.5,96.1667 22.5,90.5C 16.1667,90.5 9.83333,90.5 3.5,90.5C 3.5,89.8333 3.5,89.1667 3.5,88.5C 9.83333,88.5 16.1667,88.5 22.5,88.5C 22.5,83.1667 22.5,77.8333 22.5,72.5 Z"/></g>
<g><path style="opacity:1" fill="#5b261d" d="M 59.5,72.5 C 59.8333,72.5 60.1667,72.5 60.5,72.5C 60.1934,78.0934 60.5268,83.5934 61.5,89C 67.1569,89.4994 72.8236,89.6661 78.5,89.5C 78.5,89.8333 78.5,90.1667 78.5,90.5C 72.8333,90.5 67.1667,90.5 61.5,90.5C 61.5,96.1667 61.5,101.833 61.5,107.5C 61.1667,107.5 60.8333,107.5 60.5,107.5C 60.5,101.833 60.5,96.1667 60.5,90.5C 54.5,90.5 48.5,90.5 42.5,90.5C 42.5,89.8333 42.5,89.1667 42.5,88.5C 48.1667,88.5 53.8333,88.5 59.5,88.5C 59.5,83.1667 59.5,77.8333 59.5,72.5 Z"/></g>
<g><path style="opacity:1" fill="#403431" d="M 96.5,72.5 C 96.8333,72.5 97.1667,72.5 97.5,72.5C 97.5,84.1667 97.5,95.8333 97.5,107.5C 97.1667,107.5 96.8333,107.5 96.5,107.5C 96.5,101.833 96.5,96.1667 96.5,90.5C 90.8333,90.5 85.1667,90.5 79.5,90.5C 79.5,90.1667 79.5,89.8333 79.5,89.5C 85.1667,89.5 90.8333,89.5 96.5,89.5C 96.5,83.8333 96.5,78.1667 96.5,72.5 Z"/></g>
<g><path style="opacity:1" fill="#fefffe" d="M 3.5,90.5 C 9.83333,90.5 16.1667,90.5 22.5,90.5C 22.5,96.1667 22.5,101.833 22.5,107.5C 16.1667,107.5 9.83333,107.5 3.5,107.5C 3.5,101.833 3.5,96.1667 3.5,90.5 Z"/></g>
<g><path style="opacity:1" fill="#d73123" d="M 41.5,90.5 C 41.5,96.1667 41.5,101.833 41.5,107.5C 35.5,107.5 29.5,107.5 23.5,107.5C 23.5,101.833 23.5,96.1667 23.5,90.5C 29.5,90.5 35.5,90.5 41.5,90.5 Z"/></g>
<g><path style="opacity:1" fill="#f8f8f8" d="M 42.5,90.5 C 48.5,90.5 54.5,90.5 60.5,90.5C 60.5,96.1667 60.5,101.833 60.5,107.5C 54.5,107.5 48.5,107.5 42.5,107.5C 42.5,101.833 42.5,96.1667 42.5,90.5 Z"/></g>
<g><path style="opacity:1" fill="#d73123" d="M 78.5,90.5 C 78.5,96.1667 78.5,101.833 78.5,107.5C 72.8333,107.5 67.1667,107.5 61.5,107.5C 61.5,101.833 61.5,96.1667 61.5,90.5C 67.1667,90.5 72.8333,90.5 78.5,90.5 Z"/></g>
<g><path style="opacity:1" fill="#fefffe" d="M 79.5,90.5 C 85.1667,90.5 90.8333,90.5 96.5,90.5C 96.5,96.1667 96.5,101.833 96.5,107.5C 90.8333,107.5 85.1667,107.5 79.5,107.5C 79.5,101.833 79.5,96.1667 79.5,90.5 Z"/></g>
<g><path style="opacity:1" fill="#185b2a" d="M 3.5,108.5 C 34.5,108.5 65.5,108.5 96.5,108.5C 96.5,134.5 96.5,160.5 96.5,186.5C 55.8706,190.943 26.7039,174.943 9,138.5C 5.5585,128.793 3.72516,118.793 3.5,108.5 Z"/></g>
<g><path style="opacity:1" fill="#fdfdfd" d="M -0.5,116.5 C 6.46741,157.802 30.4674,182.802 71.5,191.5C 47.5,191.5 23.5,191.5 -0.5,191.5C -0.5,166.5 -0.5,141.5 -0.5,116.5 Z"/></g>
<g><path style="opacity:1" fill="#fcfcfc" d="M 165.5,118.5 C 165.5,142.833 165.5,167.167 165.5,191.5C 140.833,191.5 116.167,191.5 91.5,191.5C 132.7,183.966 157.367,159.633 165.5,118.5 Z"/></g>
</svg>

<svg xmlns="http://www.w3.org/2000/svg" width="166" height="192" style="shape-rendering:geometricPrecision;text-rendering:geometricPrecision;image-rendering:optimizeQuality;fill-rule:evenodd;clip-rule:evenodd"><path style="opacity:1" fill="#0c0c0b" d="M-.5-.5h166v119c-8.133 41.133-32.8 65.466-74 73h-20c-41.033-8.698-65.033-33.698-72-75V-.5z"/><path style="opacity:1" fill="#185c2a" d="M96.5 3.5v67h-93v-67h93z"/><path style="opacity:1" fill="#8f8b88" d="M97.5 3.5h1c-.332 60.836 0 121.502 1 182-.06.543-.393.876-1 1a1561.13 1561.13 0 0 1-1-79V3.5z"/><path style="opacity:1" fill="#fdfdfd" d="M98.5 3.5h63c.465 40.368-.035 80.7-1.5 121-4.017 19.478-13.851 35.144-29.5 47a2117.57 2117.57 0 0 1-1-92c3.967-2.577 3.967-5.244 0-8-1.141-1.921-1.308-3.921-.5-6 5.003-.265 9.503-1.932 13.5-5a6.802 6.802 0 0 1 1.5 3 4971.74 4971.74 0 0 1 7-16c.497-2.646.664-5.313.5-8 1.175.219 2.175-.114 3-1-.82-1.611-2.154-2.278-4-2-3.097-10.426-10.097-16.092-21-17 .614-5.17-.719-5.337-4-.5-6.478 1.24-12.145 4.072-17 8.5-1.309-2.391-2.309-2.391-3 0 .434 5.631.6 11.298.5 17 1.4 3.402 3.567 6.236 6.5 8.5a7.292 7.292 0 0 1-3 2l2 1c10.531 2.057 18.198-1.61 23-11 2.403-.63 4.237.203 5.5 2.5 2.527-4.238 1.527-7.238-3-9a3.942 3.942 0 0 0-2 1c-2.072-14.12-5.072-14.453-9-1-6.042-2.084-8.542-.084-7.5 6 3.578-3.092 5.411-2.425 5.5 2-4.094 2.976-7.427 2.309-10-2-2.038-11.467 2.795-17.467 14.5-18 12.25 1.824 17.083 8.824 14.5 21-1.061 3.062-2.894 5.562-5.5 7.5a198.044 198.044 0 0 1-15.5 5.5c-.788 5.172-2.288 10.006-4.5 14.5-.112 1.662.554 2.83 2 3.5a1250.812 1250.812 0 0 1 0 100 59.645 59.645 0 0 1-20 7c-1-60.498-1.332-121.164-1-182z"/><path style="opacity:1" fill="#0e1a0f" d="M96.5 3.5h1v69h-1c-5.475-.989-11.142-1.322-17-1h-1a86.758 86.758 0 0 0-18 1h-1c-5.475-.989-11.142-1.322-17-1h-1c-6.19-.323-12.19.01-18 1h-1c-6.145-.99-12.478-1.323-19-1v-1h93v-67z"/><path style="opacity:1" fill="#d23023" d="M3.5 71.5c6.522-.323 12.855.01 19 1v16h-19v-17z"/><path style="opacity:1" fill="#f2f2f1" d="M41.5 71.5v18h-18v-17c5.81-.99 11.81-1.323 18-1z"/><path style="opacity:1" fill="#d23023" d="M42.5 71.5c5.858-.322 11.525.011 17 1v16h-17v-17z"/><path style="opacity:1" fill="#ededec" d="M78.5 71.5v18c-5.676.166-11.343 0-17-.5a70.915 70.915 0 0 1-1-16.5 86.758 86.758 0 0 1 18-1z"/><path style="opacity:1" fill="#ce3023" d="M79.5 71.5c5.858-.322 11.525.011 17 1v17h-17v-18z"/><path style="opacity:1" fill="#8f8b88" d="M129.5 79.5a2117.57 2117.57 0 0 0 1 92c-.06.543-.393.876-1 1a1084.326 1084.326 0 0 1 0-93z"/><path style="opacity:1" fill="#482720" d="M22.5 72.5h1v17h18v1h-18v17h-1v-17h-19v-2h19v-16z"/><path style="opacity:1" fill="#5b261d" d="M59.5 72.5h1a70.915 70.915 0 0 0 1 16.5c5.657.5 11.324.666 17 .5v1h-17v17h-1v-17h-18v-2h17v-16z"/><path style="opacity:1" fill="#403431" d="M96.5 72.5h1v35h-1v-17h-17v-1h17v-17z"/><path style="opacity:1" fill="#fefffe" d="M3.5 90.5h19v17h-19v-17z"/><path style="opacity:1" fill="#d73123" d="M41.5 90.5v17h-18v-17h18z"/><path style="opacity:1" fill="#f8f8f8" d="M42.5 90.5h18v17h-18v-17z"/><path style="opacity:1" fill="#d73123" d="M78.5 90.5v17h-17v-17h17z"/><path style="opacity:1" fill="#fefffe" d="M79.5 90.5h17v17h-17v-17z"/><path style="opacity:1" fill="#185b2a" d="M3.5 108.5h93v78c-40.63 4.443-69.796-11.557-87.5-48a95.46 95.46 0 0 1-5.5-30z"/><path style="opacity:1" fill="#fdfdfd" d="M-.5 116.5c6.967 41.302 30.967 66.302 72 75h-72v-75z"/><path style="opacity:1" fill="#fcfcfc" d="M165.5 118.5v73h-74c41.2-7.534 65.867-31.867 74-73z"/></svg>
